!!!OTL: 1874. Die vermauerte Koenigstochter. / [Haschenspiel.]
!!!ODT: 1858
!!!ARE: Europa, Mitteleuropa, Deutschland, Erfurt, Stotternheim
!!!SCT: E1874
!!!TXL: @@DE
!!!YEM: Copyright 1995, estate of Helmut Schaffrath.
**kern	**text
*ICvox	*
*M2/4	*
*k[f#]	*
*G:	*
=1	=1
!LO:TX:a:t=Aus Stotternheim bei Erfurt 1858.	!
{4dd	Ding,
4b	Ding,
=2	=2
8dd	Tha-
8dd	-ler-
8b}	-ring!
{8g	Was
=3	=3
8g	ſteckt
8a	denn
8b	un-
8cc	-ter
=4	=4
8dd	die-
8dd	-ſem
4dd}	Ding?
=5	=5
{8dd	Ei-
8dd	-ne
8b	klei-
8b	-ne
=6	=6
8dd	Kö-
8dd	-ni-
8b}	-gin.
{8g	Sie
=7	=7
8g	iſt
8a	ſo
8b	feſt
8cc	ver-
=8	=8
4dd	-mauert.
4b}	.
=9	=9
{8dd	Mau-
8dd	-er
8b	wolln
8b	wir
=10	=10
4dd	ſte-
4b}	-chen.
=11	=11
{8dd	Stei-
8dd	-ne
8b	wolln
8b	wir
=12	=12
4dd	bre-
4b}	-chen
=13	=13
{8ddL	Hand,
8ccJ	.
8bL	Hand
8aJ	.
=14	=14
4g	weg!
4r}	.
==	==
!!!AGN: Kinder - Lied, Lauf - Spiel
!!!ONB: ESAC (Essen Associative Code) Database: ERK3
!!!AMT: simple duple
!!!AIN: vox
!!!EED: Helmut Schaffrath
!!!EEV: 1.0
!!!GTL: Einige Kinderlieder. d) Spiel- und Tanzliedchen.
!!!URL-scan: https://rosdok.uni-rostock.de/mcrviewer/recordIdentifier/rosdok_ppn745177999/iview2/phys_0607.iview2?x=180.4142115147706&y=181.3968075341545&scale=0.7014306698522895&rotation=0&layout=singlePageLayout
!!!ENC: Anna Maria Matuszewska
!!!EEV: 2025/09/01
*-	*-
